Numix-Circle/48x48/apps/wow-launcher.svg

<svg xmlns="http://www.w3.org/2000/svg" width="48" viewBox="0 0 13.546667 13.546667" height="48"><defs><linearGradient id="linearGradient4033" x1="-27" x2="-24" gradientUnits="userSpaceOnUse"><stop stop-color="#591a01" stop-opacity="1"/><stop offset="1" stop-color="#2e0800" stop-opacity="1"/></linearGradient></defs><g><path d="m 25 2 c -12.703 0 -23 10.297 -23 23 0 6.367 2.601 12.12 6.781 16.281 4.085 3.712 9.514 5.969 15.469 5.969 c 12.703 0 23 -10.297 23 -23 0 -5.954 -2.256 -11.384 -5.969 -15.469 c -4.165 -4.181 -9.914 -6.781 -16.281 -6.781 z m 16.281 6.781 c 3.854 4.113 6.219 9.637 6.219 15.719 c 0 12.703 -10.297 23 -23 23 c -6.081 0 -11.606 -2.364 -15.719 -6.219 4.16 4.144 9.883 6.719 16.219 6.719 12.703 0 23 -10.297 23 -23 0 -6.335 -2.575 -12.06 -6.719 -16.219 z" transform="scale(0.28222223,0.28222223)" opacity="0.05" fill="#000" stroke="none" fill-opacity="1"/><path d="m 41.28 8.781 c 3.712 4.085 5.969 9.514 5.969 15.469 c 0 12.703 -10.297 23 -23 23 -5.954 0 -11.384 -2.256 -15.469 -5.969 c 4.113 3.854 9.637 6.219 15.719 6.219 c 12.703 0 23 -10.297 23 -23 0 -6.081 -2.364 -11.606 -6.219 -15.719 z" transform="scale(0.28222223,0.28222223)" opacity="0.1" fill="#000" stroke="none" fill-opacity="1"/><path transform="matrix(4.3274074,0,0,3.2455556,117.19278,-35.348334)" d="m -24 13 a 1.5 2 0 1 1 -3 0 1.5 2 0 1 1 3 0 z" opacity="0.2" fill="#000" stroke="none" fill-opacity="1"/></g><g><path d="m -24 13 a 1.5 2 0 1 1 -3 0 1.5 2 0 1 1 3 0 z" transform="matrix(0,4.3274075,3.2455556,0,-35.418894,117.12222)" fill="url(#linearGradient4033)" stroke="none" fill-opacity="1"/><path d="m 40.03 7.531 c 3.712 4.085 5.969 9.514 5.969 15.469 c 0 12.703 -10.297 23 -23 23 c -5.954 0 -11.384 -2.256 -15.469 -5.969 c 4.178 4.291 10.01 6.969 16.469 6.969 c 12.703 0 23 -10.297 23 -23 c 0 -6.462 -2.677 -12.291 -6.969 -16.469 z" transform="scale(0.28222223,0.28222223)" opacity="0.1" fill="#000" stroke="none" fill-opacity="1"/></g><g><path d="m 7.06 2.831 c -0.76 0 -1.465 0.205 -2.081 0.556 l -1.588 0 0 1.57 c -0.357 0.621 -0.564 1.34 -0.564 2.108 c 0 0.768 0.207 1.487 0.564 2.108 l 0 1.552 1.552 0 c 0.624 0.363 1.343 0.573 2.117 0.573 0.774 0 1.501 -0.21 2.125 -0.573 l 1.543 0 0 -1.543 c 0.361 -0.623 0.564 -1.345 0.564 -2.117 0 -0.772 -0.204 -1.494 -0.564 -2.117 l 0 -1.561 -1.579 0 c -0.617 -0.351 -1.33 -0.556 -2.09 -0.556 z m 0.018 0.714 c 1.94 0 3.51 1.57 3.51 3.51 0 1.94 -1.57 3.519 -3.51 3.519 -1.94 0 -3.51 -1.579 -3.51 -3.519 0 -1.94 1.57 -3.51 3.51 -3.51 z" fill="#000" stroke="none" fill-opacity="0.157"/><path d="m 6.773 2.549 c -0.76 0 -1.465 0.205 -2.081 0.556 l -1.588 0 0 1.57 c -0.357 0.621 -0.564 1.34 -0.564 2.108 c 0 0.768 0.207 1.487 0.564 2.108 l 0 1.552 1.552 0 c 0.624 0.363 1.343 0.573 2.117 0.573 0.774 0 1.501 -0.21 2.125 -0.573 l 1.543 0 0 -1.543 c 0.361 -0.623 0.564 -1.345 0.564 -2.117 0 -0.772 -0.204 -1.494 -0.564 -2.117 l 0 -1.561 -1.579 0 c -0.617 -0.351 -1.33 -0.556 -2.09 -0.556 z m 0.018 0.714 c 1.94 0 3.51 1.57 3.51 3.51 0 1.94 -1.57 3.519 -3.51 3.519 -1.94 0 -3.51 -1.579 -3.51 -3.519 0 -1.94 1.57 -3.51 3.51 -3.51 z" fill="#d59326" stroke="none" fill-opacity="1"/><path d="m 8.05 4.917 0.185 0.256 -0.415 2.743 c -0.305 -1.235 -0.704 -2.872 -0.706 -2.875 l -0.67 2.866 -0.52 -2.496 0.106 -0.485 -1.508 -0.018 c 0.121 0.092 0.213 0.247 0.309 0.37 l 0.952 3.872 c -0.078 0.145 -0.196 0.283 -0.291 0.406 0.509 0.003 1.028 0.006 1.464 0.009 l -0.106 -0.459 0.291 -1.332 0.247 1.446 -0.044 0.344 1.438 -0.009 -0.009 -0.009 -0.194 -0.37 0.582 -3.634 0.441 -0.644 c -0.517 0.006 -1.035 0.012 -1.552 0.018 z" fill="#000" stroke="none" fill-opacity="0.157"/><path d="m 7.764 4.649 0.185 0.256 -0.415 2.743 c -0.305 -1.235 -0.704 -2.872 -0.706 -2.875 l -0.67 2.866 -0.52 -2.496 0.106 -0.485 -1.508 -0.018 c 0.121 0.092 0.213 0.247 0.309 0.37 l 0.952 3.872 c -0.078 0.145 -0.196 0.283 -0.291 0.406 0.509 0.003 1.028 0.006 1.464 0.009 l -0.106 -0.459 0.291 -1.332 0.247 1.446 -0.044 0.344 1.438 -0.009 -0.009 -0.009 -0.194 -0.37 0.582 -3.634 0.441 -0.644 c -0.517 0.006 -1.035 0.012 -1.552 0.018 z" fill="#d59326" stroke="none" fill-opacity="1"/></g></svg>

<svg xmlns="http://www.w3.org/2000/svg" viewBox="0 0 48 48"><defs><linearGradient id="linearGradient4404" y1="47" x2="0" y2="1" gradientUnits="userSpaceOnUse"><stop stop-color="#3d1105" stop-opacity="1"/><stop offset="1" stop-color="#561901" stop-opacity="1"/></linearGradient></defs><g><path d="m 36.31 5 c 5.859 4.062 9.688 10.831 9.688 18.5 c 0 12.426 -10.07 22.5 -22.5 22.5 c -7.669 0 -14.438 -3.828 -18.5 -9.688 c 1.037 1.822 2.306 3.499 3.781 4.969 c 4.085 3.712 9.514 5.969 15.469 5.969 c 12.703 0 23 -10.298 23 -23 c 0 -5.954 -2.256 -11.384 -5.969 -15.469 c -1.469 -1.475 -3.147 -2.744 -4.969 -3.781 z m 4.969 3.781 c 3.854 4.113 6.219 9.637 6.219 15.719 c 0 12.703 -10.297 23 -23 23 c -6.081 0 -11.606 -2.364 -15.719 -6.219 c 4.16 4.144 9.883 6.719 16.219 6.719 c 12.703 0 23 -10.298 23 -23 c 0 -6.335 -2.575 -12.06 -6.719 -16.219 z" opacity="0.05"/><path d="m 41.28 8.781 c 3.712 4.085 5.969 9.514 5.969 15.469 c 0 12.703 -10.297 23 -23 23 c -5.954 0 -11.384 -2.256 -15.469 -5.969 c 4.113 3.854 9.637 6.219 15.719 6.219 c 12.703 0 23 -10.298 23 -23 c 0 -6.081 -2.364 -11.606 -6.219 -15.719 z" opacity="0.1"/><path d="m 31.25 2.375 c 8.615 3.154 14.75 11.417 14.75 21.13 c 0 12.426 -10.07 22.5 -22.5 22.5 c -9.708 0 -17.971 -6.135 -21.12 -14.75 a 23 23 0 0 0 44.875 -7 a 23 23 0 0 0 -16 -21.875 z" opacity="0.2"/></g><g><path d="m 24 1 c 12.703 0 23 10.297 23 23 c 0 12.703 -10.297 23 -23 23 -12.703 0 -23 -10.297 -23 -23 0 -12.703 10.297 -23 23 -23 z" fill-opacity="1" fill="url(#linearGradient4404)"/></g><g><path d="m 40.03 7.531 c 3.712 4.084 5.969 9.514 5.969 15.469 0 12.703 -10.297 23 -23 23 c -5.954 0 -11.384 -2.256 -15.469 -5.969 4.178 4.291 10.01 6.969 16.469 6.969 c 12.703 0 23 -10.298 23 -23 0 -6.462 -2.677 -12.291 -6.969 -16.469 z" opacity="0.1"/></g><g transform="matrix(3.543307,0,0,3.543307,2.2e-7,-0.03228249)"><path d="m 7.06,2.831 c -0.76,0 -1.465,0.205 -2.081,0.556 l -1.588,0 0,1.57 c -0.357,0.621 -0.564,1.34 -0.564,2.108 0,0.768 0.207,1.487 0.564,2.108 l 0,1.552 1.552,0 c 0.624,0.363 1.343,0.573 2.117,0.573 0.774,0 1.501,-0.21 2.125,-0.573 l 1.543,0 0,-1.543 c 0.361,-0.623 0.564,-1.345 0.564,-2.117 0,-0.772 -0.204,-1.494 -0.564,-2.117 l 0,-1.561 -1.579,0 C 8.532,3.036 7.819,2.831 7.059,2.831 Z m 0.018,0.714 c 1.94,0 3.51,1.57 3.51,3.51 0,1.94 -1.57,3.519 -3.51,3.519 -1.94,0 -3.51,-1.579 -3.51,-3.519 0,-1.94 1.57,-3.51 3.51,-3.51 z" fill="#000" stroke="none" fill-opacity="0.157"/><path d="m 6.773,2.549 c -0.76,0 -1.465,0.205 -2.081,0.556 l -1.588,0 0,1.57 C 2.747,5.296 2.54,6.015 2.54,6.783 c 0,0.768 0.207,1.487 0.564,2.108 l 0,1.552 1.552,0 c 0.624,0.363 1.343,0.573 2.117,0.573 0.774,0 1.501,-0.21 2.125,-0.573 l 1.543,0 0,-1.543 c 0.361,-0.623 0.564,-1.345 0.564,-2.117 0,-0.772 -0.204,-1.494 -0.564,-2.117 l 0,-1.561 -1.579,0 C 8.245,2.754 7.532,2.549 6.772,2.549 Z m 0.018,0.714 c 1.94,0 3.51,1.57 3.51,3.51 0,1.94 -1.57,3.519 -3.51,3.519 -1.94,0 -3.51,-1.579 -3.51,-3.519 0,-1.94 1.57,-3.51 3.51,-3.51 z" fill="#d59326" stroke="none" fill-opacity="1"/><path d="M 8.05,4.917 8.235,5.173 7.82,7.916 C 7.515,6.681 7.116,5.044 7.114,5.041 L 6.444,7.907 5.924,5.411 6.03,4.926 4.522,4.908 C 4.643,5 4.735,5.155 4.831,5.278 L 5.783,9.15 C 5.705,9.295 5.587,9.433 5.492,9.556 6.001,9.559 6.52,9.562 6.956,9.565 L 6.85,9.106 7.141,7.774 7.388,9.22 7.344,9.564 8.782,9.555 8.773,9.546 8.579,9.176 9.161,5.542 9.602,4.898 C 9.085,4.904 8.567,4.91 8.05,4.916 Z" fill="#000" stroke="none" fill-opacity="0.157"/><path d="M 7.764,4.649 7.949,4.905 7.534,7.648 C 7.229,6.413 6.83,4.776 6.828,4.773 L 6.158,7.639 5.638,5.143 5.744,4.658 4.236,4.64 C 4.357,4.732 4.449,4.887 4.545,5.01 L 5.497,8.882 C 5.419,9.027 5.301,9.165 5.206,9.288 5.715,9.291 6.234,9.294 6.67,9.297 L 6.564,8.838 6.855,7.506 7.102,8.952 7.058,9.296 8.496,9.287 8.487,9.278 8.293,8.908 8.875,5.274 9.316,4.63 C 8.799,4.636 8.281,4.642 7.764,4.648 Z" fill="#d59326" stroke="none" fill-opacity="1"/></g></svg>
